X: 22343
T: La Vinchia
R: polka
M: 2/4
K: Cmajor
ef|ezefezef|:"C"gzgzgfeg|"G"fzfzfeda|
"C"gzgfezef|ezea gzgz|gfeg "G"fzfz|fede"C"[cG] z3|
([Gce]z3) e4|"G"fzgzazgz|"C"e4 gzgz|gfeg "G"fzfz|
feda "C"gzgf|ezefezea|gzgzgfeg|
"G"fzfzfede|"C"[Gc]z3 [Gce]z3|G2G2 A2Gz|"G"fzfzfz3|
"C"G2G2 A2Gz|ezezez3|"F"azazagfa|"C"gzgz gfeg|
"G"fzfz fede|"C"[Gc]z3 [Gce]z3||ezefezef:|

